azure-patterns/svg-go-logo.svg

<svg xmlns="http://www.w3.org/2000/svg" viewBox="0 0 206 77">
                                
                            
<rect width="205.388" height="76.7343" fill="black" fill-opacity="0"></rect>
<rect width="205.388" height="76.7343" fill="black" fill-opacity="0"></rect>
<rect width="39.4" height="3.8" fill="black" fill-opacity="0" transform="translate(15.0996 19.5343)"></rect>
<rect width="39.4" height="3.8" fill="black" fill-opacity="0" transform="translate(15.0996 19.5343)"></rect>
<rect width="39.4" height="3.8" fill="black" fill-opacity="0" transform="translate(15.0996 19.5343)"></rect>
<path d="M15.4996 23.2343C15.0996 23.2343 14.9996 23.0343 15.1996 22.7343L17.2996 20.0343C17.4996 19.7343 17.9996 19.5343 18.3996 19.5343H54.0996C54.4996 19.5343 54.5996 19.8343 54.3996 20.1343L52.6996 22.7343C52.4996 23.0343 51.9996 23.3343 51.6996 23.3343L15.4996 23.2343Z" fill="#2DBCAF"></path>
<rect width="49.4255" height="3.7" fill="black" fill-opacity="0" transform="translate(0 28.7343)"></rect>
<rect width="49.4255" height="3.7" fill="black" fill-opacity="0" transform="translate(0 28.7343)"></rect>
<rect width="49.4255" height="3.7" fill="black" fill-opacity="0" transform="translate(0 28.7343)"></rect>
<path d="M0.400001 32.4343C8.34465e-07 32.4343 -0.1 32.2343 0.0999997 31.9343L2.2 29.2343C2.4 28.9343 2.9 28.7343 3.3 28.7343H48.9C49.3 28.7343 49.5 29.0343 49.4 29.3343L48.6 31.7343C48.5 32.1343 48.1 32.3343 47.7 32.3343L0.400001 32.4343Z" fill="#2DBCAF"></path>
<rect width="23.1" height="3.8" fill="black" fill-opacity="0" transform="translate(24.2002 37.9343)"></rect>
<rect width="23.1" height="3.8" fill="black" fill-opacity="0" transform="translate(24.2002 37.9343)"></rect>
<rect width="23.1" height="3.8" fill="black" fill-opacity="0" transform="translate(24.2002 37.9343)"></rect>
<path d="M24.6002 41.6343C24.2002 41.6343 24.1002 41.3343 24.3002 41.0343L25.7002 38.5343C25.9002 38.2343 26.3002 37.9343 26.7002 37.9343H46.7002C47.1002 37.9343 47.3002 38.2343 47.3002 38.6343L47.1002 41.0343C47.1002 41.4343 46.7002 41.7343 46.4002 41.7343L24.6002 41.6343Z" fill="#2DBCAF"></path>
<rect width="150.873" height="76.7343" fill="black" fill-opacity="0" transform="translate(54.5146)"></rect>
<rect width="150.873" height="76.7343" fill="black" fill-opacity="0" transform="translate(54.5146)"></rect>
<rect width="150.873" height="76.7343" fill="black" fill-opacity="0" transform="translate(54.5146)"></rect>
<rect width="77.1851" height="76.5232" fill="black" fill-opacity="0" transform="translate(54.5146)"></rect>
<path d="M128.4 21.4343C122.1 23.0343 117.8 24.2343 111.6 25.8343C110.1 26.2343 110 26.3343 108.7 24.8343C107.2 23.1343 106.1 22.0343 104 21.0343C97.6997 17.9343 91.5997 18.8343 85.8997 22.5343C79.0997 26.9343 75.5997 33.4343 75.6997 41.5343C75.7997 49.5343 81.2997 56.1343 89.1997 57.2343C95.9997 58.1343 101.7 55.7343 106.2 50.6343C107.1 49.5343 107.9 48.3343 108.9 46.9343C105.3 46.9343 100.8 46.9343 89.5997 46.9343C87.4997 46.9343 86.9997 45.6343 87.6997 43.9343C88.9997 40.8343 91.3997 35.6343 92.7997 33.0343C93.0997 32.4343 93.7997 31.4343 95.2997 31.4343C100.4 31.4343 119.2 31.4343 131.7 31.4343C131.5 34.1343 131.5 36.8343 131.1 39.5343C130 46.7343 127.3 53.3343 122.9 59.1343C115.7 68.6343 106.3 74.5343 94.3997 76.1343C84.5997 77.4343 75.4997 75.5343 67.4997 69.5343C60.0997 63.9343 55.8997 56.5343 54.7997 47.3343C53.4997 36.4343 56.6997 26.6343 63.2997 18.0343C70.3997 8.73433 79.7997 2.83433 91.2997 0.734326C100.7 -0.965674 109.7 0.134328 117.8 5.63433C123.1 9.13433 126.9 13.9343 129.4 19.7343C130 20.6343 129.6 21.1343 128.4 21.4343Z" fill="#2DBCAF"></path>
<rect width="79.5914" height="75.8083" fill="black" fill-opacity="0" transform="translate(125.796 0.925964)"></rect>
<path d="M161.5 76.7343C152.4 76.5343 144.1 73.9343 137.1 67.9343C131.2 62.8343 127.5 56.3343 126.3 48.6343C124.5 37.3343 127.6 27.3343 134.4 18.4343C141.7 8.83431 150.5 3.83431 162.4 1.73431C172.6 -0.0656921 182.2 0.934306 190.9 6.83431C198.8 12.2343 203.7 19.5343 205 29.1343C206.7 42.6343 202.8 53.6343 193.5 63.0343C186.9 69.7343 178.8 73.9343 169.5 75.8343C166.8 76.3343 164.1 76.4343 161.5 76.7343ZM185.3 36.3343C185.2 35.0343 185.2 34.0343 185 33.0343C183.2 23.1343 174.1 17.5343 164.6 19.7343C155.3 21.8343 149.3 27.7343 147.1 37.1343C145.3 44.9343 149.1 52.8343 156.3 56.0343C161.8 58.4343 167.3 58.1343 172.6 55.4343C180.5 51.3343 184.8 44.9343 185.3 36.3343Z" fill="#2DBCAF"></path>
</svg>

<svg xmlns="http://www.w3.org/2000/svg" viewBox="0 0 206 77"><path fill="none" d="M0 0h205.388v76.734H0z"/><path fill="none" d="M0 0h205.388v76.734H0z"/><path fill="none" d="M15.1 19.534h39.4v3.8H15.1z"/><path fill="none" d="M15.1 19.534h39.4v3.8H15.1z"/><path fill="none" d="M15.1 19.534h39.4v3.8H15.1z"/><path d="M15.5 23.234c-.4 0-.5-.2-.3-.5l2.1-2.7c.2-.3.7-.5 1.1-.5h35.7c.4 0 .5.3.3.6l-1.7 2.6c-.2.3-.7.6-1 .6l-36.2-.1z" fill="#2DBCAF"/><path fill="none" d="M0 28.734h49.425v3.7H0z"/><path fill="none" d="M0 28.734h49.425v3.7H0z"/><path fill="none" d="M0 28.734h49.425v3.7H0z"/><path d="M.4 32.434c-.4 0-.5-.2-.3-.5l2.1-2.7c.2-.3.7-.5 1.1-.5h45.6c.4 0 .6.3.5.6l-.8 2.4c-.1.4-.5.6-.9.6l-47.3.1z" fill="#2DBCAF"/><path fill="none" d="M24.2 37.934h23.1v3.8H24.2z"/><path fill="none" d="M24.2 37.934h23.1v3.8H24.2z"/><path fill="none" d="M24.2 37.934h23.1v3.8H24.2z"/><path d="M24.6 41.634c-.4 0-.5-.3-.3-.6l1.4-2.5c.2-.3.6-.6 1-.6h20c.4 0 .6.3.6.7l-.2 2.4c0 .4-.4.7-.7.7l-21.8-.1z" fill="#2DBCAF"/><path fill="none" d="M54.515 0h150.873v76.734H54.515z"/><path fill="none" d="M54.515 0h150.873v76.734H54.515z"/><path fill="none" d="M54.515 0h150.873v76.734H54.515z"/><path fill="none" d="M54.515 0H131.7v76.523H54.515z"/><path d="M128.4 21.434c-6.3 1.6-10.6 2.8-16.8 4.4-1.5.4-1.6.5-2.9-1-1.5-1.7-2.6-2.8-4.7-3.8-6.3-3.1-12.4-2.2-18.1 1.5-6.8 4.4-10.3 10.9-10.2 19 .1 8 5.6 14.6 13.5 15.7 6.8.9 12.5-1.5 17-6.6.9-1.1 1.7-2.3 2.7-3.7H89.6c-2.1 0-2.6-1.3-1.9-3 1.3-3.1 3.7-8.3 5.1-10.9.3-.6 1-1.6 2.5-1.6h36.4c-.2 2.7-.2 5.4-.6 8.1-1.1 7.2-3.8 13.8-8.2 19.6-7.2 9.5-16.6 15.4-28.5 17-9.8 1.3-18.9-.6-26.9-6.6-7.4-5.6-11.6-13-12.7-22.2-1.3-10.9 1.9-20.7 8.5-29.3 7.1-9.3 16.5-15.2 28-17.3 9.4-1.7 18.4-.6 26.5 4.9 5.3 3.5 9.1 8.3 11.6 14.1.6.9.2 1.4-1 1.7z" fill="#2DBCAF"/><path fill="none" d="M125.796.926h79.591v75.808h-79.591z"/><path d="M161.5 76.734c-9.1-.2-17.4-2.8-24.4-8.8-5.9-5.1-9.6-11.6-10.8-19.3-1.8-11.3 1.3-21.3 8.1-30.2 7.3-9.6 16.1-14.6 28-16.7 10.2-1.8 19.8-.8 28.5 5.1 7.9 5.4 12.8 12.7 14.1 22.3 1.7 13.5-2.2 24.5-11.5 33.9-6.6 6.7-14.7 10.9-24 12.8-2.7.5-5.4.6-8 .9zm23.8-40.4c-.1-1.3-.1-2.3-.3-3.3-1.8-9.9-10.9-15.5-20.4-13.3-9.3 2.1-15.3 8-17.5 17.4-1.8 7.8 2 15.7 9.2 18.9 5.5 2.4 11 2.1 16.3-.6 7.9-4.1 12.2-10.5 12.7-19.1z" fill="#2DBCAF"/></svg>
